src/assets/icons/link.svg

<svg width="14" height="14" viewBox="0 0 14 14" fill="none" xmlns="http://www.w3.org/2000/svg">
<g id="link">
<g clip-path="url(#clip0_156_4633)">
<g id="Vector">
<path d="M5.20332 10.8381C5.79754 11.4359 6.60131 11.7648 7.46745 11.7648C8.38398 11.7648 9.28852 11.3838 9.94992 10.7205L12.9602 7.6916C14.299 6.34402 14.3518 4.20661 13.0786 2.92545C12.4108 2.25486 11.4687 1.92837 10.497 2.01319C10.1675 2.0444 9.92513 2.33729 9.95632 2.66698C9.98751 2.99667 10.2778 3.23834 10.6097 3.20873C11.2216 3.14311 11.8142 3.35597 12.2277 3.77209C13.037 4.58592 12.9842 5.96391 12.1093 6.84416L9.09897 9.87302C8.26482 10.7109 6.82524 10.7677 6.05347 9.99225C5.24411 9.17682 5.29689 7.79883 6.17183 6.91858L7.17474 5.9087C7.40827 5.67423 7.40747 5.29332 7.17234 5.05966C6.93641 4.82599 6.55732 4.82759 6.32379 5.06286L5.32088 6.07194C3.98288 7.41872 3.92929 9.55613 5.20332 10.8381Z" fill="black"/>
<path d="M0.921366 11.0733C1.51639 11.6711 2.32735 12 3.1855 12C3.29107 12 3.39664 11.9944 3.50221 11.984C3.83171 11.9528 4.07404 11.6599 4.04285 11.3302C4.01166 10.9997 3.71814 10.7588 3.38944 10.7885C2.77282 10.8517 2.18499 10.6412 1.77152 10.2251C0.962153 9.41127 1.01494 8.03328 1.88988 7.15303L4.9002 4.12417C5.73435 3.28474 7.17313 3.22872 7.9457 4.00494C8.75506 4.82037 8.70228 6.19836 7.82734 7.07861L6.82443 8.0885C6.5909 8.32296 6.5917 8.70387 6.82683 8.93753C7.06196 9.1712 7.44185 9.1696 7.67538 8.93433L8.67828 7.92525C10.0163 6.57847 10.0699 4.44106 8.79585 3.1591C8.20163 2.56133 7.39786 2.23244 6.53172 2.23244C5.61519 2.23244 4.71065 2.61415 4.05005 3.27833L1.03973 6.30719C-0.299076 7.65477 -0.35186 9.79218 0.921366 11.0733Z" fill="black"/>
</g>
</g>
</g>
<defs>
<clipPath id="clip0_156_4633">
<rect width="14" height="14" fill="white"/>
</clipPath>
</defs>
</svg>

<svg xmlns="http://www.w3.org/2000/svg" fill="none" viewBox="0 0 14 14"><g fill="#000" clip-path="url(#a)"><path d="M5.203 10.838a3.16 3.16 0 0 0 2.264.927c.917 0 1.822-.381 2.483-1.045l3.01-3.028c1.339-1.348 1.392-3.485.119-4.767-.668-.67-1.61-.997-2.582-.912a.6.6 0 0 0 .113 1.196 1.98 1.98 0 0 1 1.618.563c.809.814.756 2.192-.119 3.072L9.1 9.873c-.834.838-2.274.895-3.046.12-.809-.816-.756-2.194.119-3.074l1.003-1.01a.6.6 0 0 0-.851-.846L5.32 6.072c-1.338 1.347-1.392 3.484-.118 4.766"/><path d="M.921 11.073a3.18 3.18 0 0 0 2.581.911.6.6 0 0 0-.113-1.195 1.98 1.98 0 0 1-1.617-.564c-.81-.814-.757-2.192.118-3.072L4.9 4.124c.834-.84 2.273-.895 3.046-.12.81.816.756 2.194-.119 3.075l-1.003 1.01a.6.6 0 0 0 .851.845l1.003-1.009c1.338-1.347 1.392-3.484.118-4.766a3.16 3.16 0 0 0-2.264-.927c-.917 0-1.821.382-2.482 1.046l-3.01 3.03C-.3 7.654-.352 9.791.92 11.072"/></g><defs><clipPath id="a"><path fill="#fff" d="M0 0h14v14H0z"/></clipPath></defs></svg>
